packages/icons/src/car-clock.svg

<svg width="24" height="24" viewBox="0 0 24 24" fill="none" xmlns="http://www.w3.org/2000/svg">
<path fill-rule="evenodd" clip-rule="evenodd" d="M18.0002 9C19.5915 9 21.1176 9.63214 22.2428 10.7574C23.3681 11.8826 24.0002 13.4087 24.0002 15C24.0002 16.5913 23.3681 18.1174 22.2428 19.2426C21.1176 20.3679 19.5915 21 18.0002 21C16.4089 21 14.8828 20.3679 13.7576 19.2426C12.6323 18.1174 12.0002 16.5913 12.0002 15C12.0002 13.4087 12.6323 11.8826 13.7576 10.7574C14.8828 9.63214 16.4089 9 18.0002 9ZM16.1802 4C16.8212 3.99983 17.4455 4.20499 17.9614 4.58543C18.4774 4.96586 18.8579 5.50156 19.0472 6.114L19.0952 6.286L19.5572 8.174C18.8699 8.01773 18.163 7.96581 17.4602 8.02L17.1522 6.762C17.1036 6.56338 16.9953 6.38443 16.8419 6.24926C16.6885 6.11408 16.4974 6.02918 16.2942 6.006L16.1812 6H7.8792C7.67892 5.99981 7.4832 6.05975 7.31738 6.17208C7.15157 6.28441 7.0233 6.44393 6.9492 6.63L6.9112 6.748L6.4082 8.677C9.10195 8.98022 11.8159 9.06383 14.5232 8.927C13.6271 9.43853 12.8553 10.142 12.2632 10.987C9.93952 11.0004 7.61759 10.8571 5.3132 10.558L4.7702 11.299C4.32085 11.9141 4.05648 12.6448 4.0082 13.405L4.0002 13.66V20H2.0002V13.659C2.00009 12.4864 2.34358 11.3395 2.9882 10.36L3.0862 10.22L2.5262 10.12L1.8042 9.98L2.1962 8.02C2.9242 8.165 3.6552 8.294 4.3872 8.407L4.4232 8.332L4.4622 8.213L4.9762 6.243C5.13592 5.6302 5.48547 5.08366 5.97477 4.68165C6.46408 4.27965 7.06806 4.04279 7.7002 4.005L7.8802 4H16.1822H16.1802ZM7.9922 17L11.2922 17.001C11.5062 17.724 11.8352 18.397 12.2572 19.001L7.9902 19V20H5.9902V19C5.99006 18.4953 6.18076 18.0091 6.52406 17.6391C6.86736 17.2691 7.33787 17.0426 7.8412 17.005L7.9912 17H7.9922ZM18.0002 11C16.9393 11 15.9219 11.4214 15.1718 12.1716C14.4216 12.9217 14.0002 13.9391 14.0002 15C14.0002 16.0609 14.4216 17.0783 15.1718 17.8284C15.9219 18.5786 16.9393 19 18.0002 19C19.0611 19 20.0785 18.5786 20.8286 17.8284C21.5788 17.0783 22.0002 16.0609 22.0002 15C22.0002 13.9391 21.5788 12.9217 20.8286 12.1716C20.0785 11.4214 19.0611 11 18.0002 11ZM18.5002 12V14.5H21.0002V16H17.0002V12H18.5002ZM9.0002 13V15H6.0002V13H9.0002Z" fill="black"/>
</svg>

<svg xmlns="http://www.w3.org/2000/svg" width="24" height="24" fill="none" viewBox="0 0 24 24">
  <path fill="#000" fill-rule="evenodd" d="M18 9a6 6 0 1 1 0 12 6 6 0 0 1 0-12Zm-1.82-5a3 3 0 0 1 2.867 2.114l.048.172.462 1.888a7.023 7.023 0 0 0-2.097-.154l-.308-1.258a1 1 0 0 0-.858-.756L16.181 6H7.88a1 1 0 0 0-.93.63l-.038.118-.503 1.929a49.99 49.99 0 0 0 8.115.25 6.992 6.992 0 0 0-2.26 2.06 51.68 51.68 0 0 1-6.95-.429l-.543.741a4 4 0 0 0-.762 2.106L4 13.66V20H2v-6.341a6 6 0 0 1 .988-3.299l.098-.14-.56-.1-.722-.14.392-1.96c.728.145 1.46.274 2.191.387l.036-.075.04-.119.513-1.97A3 3 0 0 1 7.7 4.005L7.88 4h8.302-.002ZM7.992 17l3.3.001a6.92 6.92 0 0 0 .965 2L7.99 19v1h-2v-1a2 2 0 0 1 1.851-1.995l.15-.005h.001ZM18 11a4 4 0 1 0 0 8 4 4 0 0 0 0-8Zm.5 1v2.5H21V16h-4v-4h1.5ZM9 13v2H6v-2h3Z" clip-rule="evenodd"/>
</svg>
